X: 32
T: Rosebud of Allanvale / Rose of Sharon
C: J. Scott Skinner 1843-1927
O: arranged by Bob Alessio
M: 3/4
L: 1/8
K: D
AG |\
"D"F3 G F2 | "A"E3 F E2 | "D"D6 | D2 E2 F2 | "G"G3 A B2 | "D"A2 D2 F2 | "A(Em)"E6- | "A7"E4 AG |
"D"F3 G FE | D2 E2 F2 | "G"G4 A2 | B3 c d2 "^I"| "D"A D3 G2 | "A"F4 E2 | "D"D6- | D4 :|
|: A2 |\
"D7"A3 B =c2 | B2 F2 A2 | "G"G6- | G4 B2 | "E7"B3 c d2 | c2 ^G2 B2 | "A"A6 | A2 B2 c2 |
"D"d2 A2 F2 | D4 =C2 | "G"B,3 D G2 | "E(m)7"B3 c d2 "^I"| "D"A D3 G2 | "A"F4 E2 | "D"D6- | D4 :|
